!!!!SEGMENT: pl-kk--kk-i-7--032_anonim--kyrie.krn
!!!cenid: 16xx:822
!!!COM: Anonim
!!!COM-rismID: pe30004985
!!!CDT:
!!!CNT:
!!!OTL: Kyrie
!!!PDT:
!!!AGN: Sacred; Mass section
!!!YEC: Copyright 2022 Narodowy Instytut Fryderyka Chopina (https://polishscores.org)
!!!YEM: License CC-BY-4.0 (https://creativecommons.org/licenses/by/4.0)
!!!SMS-siglum: PL-Kk
!!!SMS-shelfmark: Kk.I.7
!!!SMS-shelfwork: 032 W
!!!SMS-variant:
!!!SMS-altvar:
!!!NIFC-rismSourceID: 300258077
!!!NIFC-rismChildID: 300258109
!!!NIFC-islandoraID: pl-kk:1956
!!!URL-pdf-islandora: https://repozytorium.nifc.pl/islandora/object/pl-kk%3A1956/datastream/PDF/view
!!!URL-scan: https://polish.musicsources.pl/pl/lokalizacje/galeria/rekopisy/6140 @EN{Scan on Polish Music Sources Website} @PL{Skany w portalu Dziedzictwo Muzyki Polskiej w otwartym dostępie}
!!!IIIF: https://repozytorium.nifc.pl/islandora/object/pl-kk%3A1956/datastream/IIIF/view
!!!ONB-nifc: UWAGA: tylko partia B, skan 0272, dołączona kartka
!!!AIN: 1 bass
!!!key:
**kern	**text
*part1	*
*staff1	*
*Ibass	*
*I"[BASSVS.]	*
*I'[B]	*
*clefF4	*
*k[]	*
*F:	*
*M2/1	*
*met(C|)	*
=1	=1
!LO:TX:t=P:problem=linia melodyczna wskazuje na tonację F	!
!LO:TX:a:t=De Adventu Domini	!
*xywh-#272:7118,477,4848,960	*
1r	.
1F	Ky-
=2-	=2-
1D	-ri-
1C	-e
=3-	=3-
!LO:TX:t=P:problem=kreska pseudotaktowa	!
1F	e-
!LO:SIC:s=BB-	!
2.BB/	.
4C/	.
=4-	=4-
4D/	.
4E\	.
1F	.
*2\right	*
!LO:TX:t=P:problem=kreska pseudotaktowa	!
2E\	.
=5-	=5-
2.D/	-ley-
4C/	.
!LO:SIC:s=BB-	!
1BB	.
=6-	=6-
1C	-son
!LO:N:vis=00	!
1FF;	.
=7||	=7||
*M2/1	*
*met(C|)	*
2r	.
1F	Chri-
2E\	.
=8-	=8-
!LO:TX:t=P:problem=kreska pseudotaktowa	!
1F	-ste
!LO:SIC:s=BB-	!
2.BB/	e-
4C/	.
!LO:LB:g=original	!
=9-	=9-
*xywh-#272:7070,1327,4841,587	*
4D/	.
4E/	.
!LO:TX:t=P:problem=kreska pseudotaktowa	!
2F\	.
1G	-lei-
=10-	=10-
1F	-son
!LO:SIC:s=BB-	!
1BB	Chri-
=11-	=11-
!LO:TX:t=P:problem=kreska pseudotaktowa	!
1C	.
2.D/	-ste
4C/	.
=12-	=12-
!LO:SIC:s=BB-	!
1BB	e
2FF/	.
1F\	e-
=13-	=13-
.	.
!LO:TX:t=P:problem=kreska pseudotaktowa	!
2E\	.
4F\	-Lei-
4E\	.
4D\	.
4C/	.
=14-	=14-
!LO:SIC:s=BB-	!
2BB/	.
2D/	.
1C	-son
=15-	=15-
!LO:N:vis=00	!
0FF;	.
=16||	=16||
*M2/1	*
*met(C|)	*
1r	.
1C	Ky-
=17-	=17-
1.F	-ri-
!LO:TX:t=P:problem=kreska pseudotaktowa	!
2G\	-e
!LO:LB:g=original	!
=18-	=18-
*xywh-#272:7063,1804,4807,621	*
1A	e-
1D	.
=19-	=19-
1A	-lei-
1D	-son
=20-	=20-
2.E\	e-
!LO:TX:t=P:problem=kreska pseudotaktowa	!
4F\	.
1G	.
=21-	=21-
1A	.
1G	-lei-
=22-	=22-
2C/	-son
2.F\	e-
4E\	.
4D\	.
4C/	.
=23-	=23-
!LO:SIC:s=BB-	!
2BB/	.
!LO:TX:t=P:problem=kreska pseudotaktowa	!
2GG/	.
2.AA/	.
!LO:SIC:s=BB-	!
4BB/	.
=24-	=24-
1C	.
2.D/	.
4C/	.
=25-	=25-
!LO:SIC:s=BB-	!
1BB	-Ley-
1C	-son
=26-	=26-
!LO:N:vis=00	!
0FF;	.
=27||	=27||
*M2/1	*
*met(C|)	*
!LO:TX:a:t=1.	!
1r	.
!LO:LB:g=original	!
=-	=-
*xywh-#272:7070,2349,4897,587	*
1.F	Ky-
=28-	=28-
.	.
!LO:TX:t=P:problem=kreska pseudotaktowa	!
2F\	-ri-
!LO:SIC:s=B-	!
1B	-e
=29-	=29-
2.A\	e-
!LO:TX:t=P:problem=kreska pseudotaktowa	!
4G\	.
1D	.
=30-	=30-
2.E\	.
!LO:TX:t=P:problem=kreska pseudotaktowa	!
4F\	.
2G\	-lei-
2G\	-son
=31-	=31-
2C/	.
!LO:TX:t=P:problem=kreska pseudotaktowa	!
2F\	Ky-
1G	-ri-
=32-	=32-
2.F\	-e
!LO:TX:t=P:problem=kreska pseudotaktowa	!
4E\	e-
2D/	.
!LO:SIC:s=BB-	!
2BB/	.
=33-	=33-
1C	-lei-
!LO:TX:t=P:problem=kreska pseudotaktowa	!
1F	-son
=34-	=34-
2r	.
2F\	Ky-
1A	-ri-
=35-	=35-
1G	-e
1.F	e-
=36-	=36-
.	.
!LO:TX:t=P:problem=kreska pseudotaktowa	!
2G\	.
!LO:LB:g=original	!
=-	=-
*xywh-#272:7104,2881,2880,545	*
2C/	-lei-
2C/	.
=37-	=37-
1D	.
!LO:SIC:s=BB-	!
2BB/	.
!LO:TX:t=P:problem=kreska pseudotaktowa	!
2GG/	.
=38-	=38-
2.AA/	.
!LO:SIC:s=BB-	!
4BB/	.
1C	.
=39-	=39-
0D	.
=40-	=40-
1C	-son.
!LO:N:vis=00	!
1FF;	.
==	==
*-	*-
!!!ENC: Marta Chmielewska
!!!END: 2021-03-12
!!!ENC: Andrzej Kubiczek
!!!END: 2021-02-24
!!!ENC-iiif: Konrad Tyszka
!!!END-iiif: 2022-08-31
